modules/framework7-icons/icons/world.svg

<?xml version="1.0" encoding="UTF-8"?>
<svg width="50px" height="50px" viewBox="0 0 50 50" version="1.1" xmlns="http://www.w3.org/2000/svg" xmlns:xlink="http://www.w3.org/1999/xlink">
    <!-- Generator: Sketch 40.1 (33804) - http://www.bohemiancoding.com/sketch -->
    <title>world</title>
    <desc>Created with Sketch.</desc>
    <defs></defs>
    <g id="Page-1" stroke="none" stroke-width="1" fill="none" fill-rule="evenodd">
        <g id="world" fill="#000000">
            <path d="M25,50 C38.8071187,50 50,38.8071187 50,25 C50,11.1928813 38.8071187,0 25,0 C11.1928813,0 0,11.1928813 0,25 C0,38.8071187 11.1928813,50 25,50 Z M18.6013278,47.1898694 C18.6013278,47.1898694 16.5682374,46.8118085 13.309907,44.8809972 C10.0515767,42.950186 8.42241148,41.0193748 8.42241148,41.0193748 C8.42241148,41.0193748 9.08215605,40.4387812 10.617072,39.7906767 C12.151988,39.1425722 13.6465114,38.7645113 13.6465114,38.7645113 C13.6465114,38.7645113 14.4678261,41.1949031 15.8411719,43.5307796 C17.2145178,45.8666561 18.6013278,47.1898694 18.6013278,47.1898694 Z M31.3545799,47.1898694 C31.3545799,47.1898694 33.3876703,46.8118085 36.6460006,44.8809972 C39.904331,42.950186 41.5334962,41.0193748 41.5334962,41.0193748 C41.5334962,41.0193748 40.8737516,40.4387812 39.3388356,39.7906767 C37.8039197,39.1425722 36.3093963,38.7645113 36.3093963,38.7645113 C36.3093963,38.7645113 35.4880816,41.1949031 34.1147357,43.5307796 C32.7413899,45.8666561 31.3545799,47.1898694 31.3545799,47.1898694 Z M23.9869978,48 L23.9869978,37.4277872 C23.9869978,37.4277872 22.6405803,37.4277872 19.7996394,37.6978394 C16.9586984,37.9678915 15.6122809,38.3054373 15.6122809,38.3054373 C15.6122809,38.3054373 16.7971283,41.9375228 19.153359,44.8269885 C21.5095896,47.7164543 23.9869978,48 23.9869978,48 Z M25.9873148,48 L25.9873148,37.4277872 C25.9873148,37.4277872 27.3337323,37.4277872 30.1746732,37.6978394 C33.0156141,37.9678915 34.3620316,38.3054373 34.3620316,38.3054373 C34.3620316,38.3054373 33.1771842,41.9375228 30.8209536,44.8269885 C28.464723,47.7164543 25.9873148,48 25.9873148,48 Z M14.9929289,36.3426769 C14.9929289,36.3426769 17.4130283,35.914717 18.924468,35.7485811 C20.4020752,35.5861641 23.9869978,35.3840224 23.9869978,35.3840224 L23.9869978,26 L13.4984055,26 C13.4984055,26 13.5791905,28.8354668 13.9831158,31.6304173 C14.387041,34.4253678 14.9929289,36.3426769 14.9929289,36.3426769 Z M34.9727537,36.3426769 C34.9727537,36.3426769 32.5526542,35.914717 31.0412146,35.7485811 C29.5636074,35.5861641 25.9786848,35.3840224 25.9786848,35.3840224 L25.9786848,26 L36.4672771,26 C36.4672771,26 36.3864921,28.8354668 35.9825668,31.6304173 C35.5786416,34.4253678 34.9727537,36.3426769 34.9727537,36.3426769 Z M13.0540877,36.8152531 C13.0540877,36.8152531 12.3808789,34.2903461 12.0173462,31.6304173 C11.6538135,28.9704885 11.4922434,26.0000097 11.4922434,26.0000097 L2,26.0000097 C2,26.0000097 2.24270084,30.6454876 3.80419945,33.9392895 C6.1469659,38.8810861 7.08945815,39.4751818 7.08945815,39.4751818 C7.08945815,39.4751818 8.00502205,38.7190599 9.35143955,38.111462 C10.6978571,37.5038641 13.0540877,36.8152531 13.0540877,36.8152531 Z M36.9144413,36.8152531 C36.9144413,36.8152531 37.58765,34.2903461 37.9511827,31.6304173 C38.3147155,28.9704885 38.4762856,26.0000097 38.4762856,26.0000097 L47.9685289,26.0000097 C47.9685289,26.0000097 47.7258281,30.6454876 46.1643295,33.9392895 C43.821563,38.8810861 42.8790708,39.4751818 42.8790708,39.4751818 C42.8790708,39.4751818 41.9635069,38.7190599 40.6170894,38.111462 C39.2706719,37.5038641 36.9144413,36.8152531 36.9144413,36.8152531 Z M14.9929289,13.6253739 C14.9929289,13.6253739 17.4130283,14.0533338 18.924468,14.2194697 C20.4020752,14.3818868 23.9869978,14.5840285 23.9869978,14.5840285 L23.9869978,23.9680508 L13.4984055,23.9680508 C13.4984055,23.9680508 13.5791905,21.1325841 13.9831158,18.3376335 C14.387041,15.542683 14.9929289,13.6253739 14.9929289,13.6253739 Z M34.9727537,13.6253739 C34.9727537,13.6253739 32.5526542,14.0533338 31.0412146,14.2194697 C29.5636074,14.3818868 25.9786848,14.5840285 25.9786848,14.5840285 L25.9786848,23.9680508 L36.4672771,23.9680508 C36.4672771,23.9680508 36.3864921,21.1325841 35.9825668,18.3376335 C35.5786416,15.542683 34.9727537,13.6253739 34.9727537,13.6253739 Z M13.0540877,13.1527978 C13.0540877,13.1527978 12.3808789,15.6777048 12.0173462,18.3376335 C11.6538135,20.9975623 11.4922434,23.9680411 11.4922434,23.9680411 L2,23.9680411 C2,23.9680411 2.24270084,19.3225632 3.80419945,16.0287613 C6.1469659,11.0869648 7.08945815,10.492869 7.08945815,10.492869 C7.08945815,10.492869 8.00502205,11.2489909 9.35143955,11.8565888 C10.6978571,12.4641868 13.0540877,13.1527978 13.0540877,13.1527978 Z M36.9144413,13.1527978 C36.9144413,13.1527978 37.58765,15.6777048 37.9511827,18.3376335 C38.3147155,20.9975623 38.4762856,23.9680411 38.4762856,23.9680411 L47.9685289,23.9680411 C47.9685289,23.9680411 47.7258281,19.3225632 46.1643295,16.0287613 C43.821563,11.0869648 42.8790708,10.492869 42.8790708,10.492869 C42.8790708,10.492869 41.9635069,11.2489909 40.6170894,11.8565888 C39.2706719,12.4641868 36.9144413,13.1527978 36.9144413,13.1527978 Z M18.6013278,2.81013059 C18.6013278,2.81013059 16.5682374,3.18819153 13.309907,5.11900276 C10.0515767,7.049814 8.42241148,8.98062523 8.42241148,8.98062523 C8.42241148,8.98062523 9.08215605,9.56121882 10.617072,10.2093233 C12.151988,10.8574278 13.6465114,11.2354887 13.6465114,11.2354887 C13.6465114,11.2354887 14.4678261,8.80509694 15.8411719,6.46922041 C17.2145178,4.13334388 18.6013278,2.81013059 18.6013278,2.81013059 Z M31.3545799,2.81013059 C31.3545799,2.81013059 33.3876703,3.18819153 36.6460006,5.11900276 C39.904331,7.049814 41.5334962,8.98062523 41.5334962,8.98062523 C41.5334962,8.98062523 40.8737516,9.56121882 39.3388356,10.2093233 C37.8039197,10.8574278 36.3093963,11.2354887 36.3093963,11.2354887 C36.3093963,11.2354887 35.4880816,8.80509694 34.1147357,6.46922041 C32.7413899,4.13334388 31.3545799,2.81013059 31.3545799,2.81013059 Z M23.9869978,2 L23.9869978,12.5722128 C23.9869978,12.5722128 22.6405803,12.5722128 19.7996394,12.3021606 C16.9586984,12.0321085 15.6122809,11.6945627 15.6122809,11.6945627 C15.6122809,11.6945627 16.7971283,8.06247723 19.153359,5.17301147 C21.5095896,2.28354571 23.9869978,2 23.9869978,2 Z M25.9873148,2 L25.9873148,12.5722128 C25.9873148,12.5722128 27.3337323,12.5722128 30.1746732,12.3021606 C33.0156141,12.0321085 34.3620316,11.6945627 34.3620316,11.6945627 C34.3620316,11.6945627 33.1771842,8.06247723 30.8209536,5.17301147 C28.464723,2.28354571 25.9873148,2 25.9873148,2 Z" id="Combined-Shape"></path>
        </g>
    </g>
</svg>

<svg width="50" height="50" viewBox="0 0 50 50" xmlns="http://www.w3.org/2000/svg"><path d="M25 50c13.807 0 25-11.193 25-25S38.807 0 25 0 0 11.193 0 25s11.193 25 25 25zm-6.399-2.81s-2.033-.378-5.291-2.309c-3.258-1.93-4.888-3.862-4.888-3.862s.66-.58 2.195-1.228c1.535-.648 3.03-1.026 3.03-1.026s.82 2.43 2.194 4.766 2.76 3.659 2.76 3.659zm12.754 0s2.033-.378 5.291-2.309c3.258-1.93 4.887-3.862 4.887-3.862s-.66-.58-2.194-1.228c-1.535-.648-3.03-1.026-3.03-1.026s-.82 2.43-2.194 4.766-2.76 3.659-2.76 3.659zm-7.368.81V37.428s-1.346 0-4.187.27-4.188.607-4.188.607 1.185 3.633 3.541 6.522C21.51 47.717 23.987 48 23.987 48zm2 0V37.428s1.347 0 4.188.27c2.84.27 4.187.607 4.187.607s-1.185 3.633-3.541 6.522C28.465 47.717 25.987 48 25.987 48zM14.993 36.343s2.42-.428 3.931-.594c1.478-.163 5.063-.365 5.063-.365V26H13.498s.081 2.835.485 5.63c.404 2.795 1.01 4.713 1.01 4.713zm19.98 0s-2.42-.428-3.932-.594c-1.477-.163-5.062-.365-5.062-.365V26h10.488s-.08 2.835-.484 5.63c-.404 2.795-1.01 4.713-1.01 4.713zm-21.919.472s-.673-2.525-1.037-5.185c-.363-2.66-.525-5.63-.525-5.63H2s.243 4.645 1.804 7.94c2.343 4.941 3.285 5.535 3.285 5.535s.916-.756 2.262-1.364c1.347-.607 3.703-1.296 3.703-1.296zm23.86 0s.674-2.525 1.037-5.185c.364-2.66.525-5.63.525-5.63h9.493s-.243 4.645-1.805 7.94c-2.342 4.941-3.285 5.535-3.285 5.535s-.915-.756-2.262-1.364c-1.346-.607-3.703-1.296-3.703-1.296zm-21.921-23.19s2.42.428 3.931.594c1.478.163 5.063.365 5.063.365v9.384H13.498s.081-2.835.485-5.63c.404-2.795 1.01-4.713 1.01-4.713zm19.98 0s-2.42.428-3.932.594c-1.477.163-5.062.365-5.062.365v9.384h10.488s-.08-2.835-.484-5.63c-.404-2.795-1.01-4.713-1.01-4.713zm-21.919-.472s-.673 2.525-1.037 5.185c-.363 2.66-.525 5.63-.525 5.63H2s.243-4.645 1.804-7.94c2.343-4.941 3.285-5.535 3.285-5.535s.916.756 2.262 1.364c1.347.607 3.703 1.296 3.703 1.296zm23.86 0s.674 2.525 1.037 5.185c.364 2.66.525 5.63.525 5.63h9.493s-.243-4.645-1.805-7.94c-2.342-4.941-3.285-5.535-3.285-5.535s-.915.756-2.262 1.364c-1.346.607-3.703 1.296-3.703 1.296zM18.601 2.81s-2.033.378-5.291 2.309c-3.258 1.93-4.888 3.862-4.888 3.862s.66.58 2.195 1.228a23.856 23.856 0 0 0 3.03 1.026s.82-2.43 2.194-4.766 2.76-3.659 2.76-3.659zm12.754 0s2.033.378 5.291 2.309c3.258 1.93 4.887 3.862 4.887 3.862s-.66.58-2.194 1.228a23.856 23.856 0 0 1-3.03 1.026s-.82-2.43-2.194-4.766-2.76-3.659-2.76-3.659zM23.987 2v10.572s-1.346 0-4.187-.27-4.188-.607-4.188-.607 1.185-3.633 3.541-6.522C21.51 2.283 23.987 2 23.987 2zm2 0v10.572s1.347 0 4.188-.27c2.84-.27 4.187-.607 4.187-.607s-1.185-3.633-3.541-6.522C28.465 2.283 25.987 2 25.987 2z" fill="#000" fill-rule="evenodd"/></svg>
